X: 523
U:~=!turn!
M:C|
L:1/8
K:E aeolian
[2 {/F}GEBE {/F}GABb | {/f}gedF E/E/E TE || e | T(gf)eb {/f}gebe | T(fe){/^c}da fdad | T(gf)eb {/f}gebe |
{/^c}dBAF E/E/E ~Ee | T(gf)eb {/f}gebe | fdad bdad | Tgfe^d egTfe | {/^c}dBAF E/E/E ~E |]


